X:1
T:Blaencefn, 87.87.87
T:Blaencefn, 87.87.87
T:John Thomas (Llanwrtyd)  (1839-1921)
T:Public Domain Courtesy of the Cyber Hymnal™
C:John Thomas (Llanwrtyd)  (1839-1921)
Z:Public Domain
Z:Courtesy of the Cyber Hymnal™
%%score ( 1 2 ) ( 3 4 )
L:1/8
Q:1/4=103
M:4/4
K:A
V:1 treble 
V:2 treble 
V:3 bass 
V:4 bass 
V:1
 [CA]2 ([Ec][DB]) [CA]2 E2 | (FG) ([EA][FB]) [Ec]2 [EB]2 | [EA]2 [Ec]2 (FG) ([EA][FB]) | %3
 [Ec]2 [DB]2 [CA]4 | [CA]2 ([Ec][DB]) [CA]2 E2 | (FG) (AB) [Ec]2 [EB]2 | %6
 [CA]2 [^Ec]2 (F[EG]) ([FA][GB]) | [FA]2 [^EG]2 [CF]4 | [EG]2 ([GB][FA]) ([EG]>[^DF]) E2 | %9
 [Ec]2 (ed) (c>B) A2 | [Ac]2 [=Ge]2 [Fd]2 (FB) | [EA]2 [EG]2 [EA]4 |] %12
V:2
 x6 E2 | D2 x6 | x4 D2 x2 | x8 | x6 E2 | E2 ^D2 x4 | x4 F x3 | x8 | x6 E2 | x2 E2 E2 (EA) | x6 F2 | %11
 x8 |] %12
V:3
 [A,,E,]2 [A,,E,]2 [A,,E,]2 [C,A,]2 | A,2 A,2 [E,A,]2 [E,G,]2 | %2
 [C,A,]2 [A,,A,]2 (A,B,) ([C,C][B,,D]) | [E,A,]2 [E,G,]2 [A,,A,]4 | %4
 [A,,A,]2 [A,,A,]2 [A,,A,]2 ([A,C][G,B,]) | (A,B,) [F,A,]2 [E,A,]2 [E,G,]2 | %6
 [F,A,]2 [C,G,]2 ([A,C][G,B,]) ([F,C][B,,D]) | [C,C]2 [C,B,]2 [F,A,]4 | %8
 [E,B,]2 [E,B,]2 (B,>A,) [E,G,]2 | A,2 (CB,) (A,>B,) C2 | [F,A,]2 [C,A,]2 [D,A,]2 ([D,A,][B,,D]) | %11
 [E,C]2 [E,B,]2 [A,,C]4 |] %12
V:4
 x8 | (D,B,,) (C,D,) x4 | x4 D,2 x2 | x8 | x8 | F,2 x6 | x8 | x8 | x4 E,2 x2 | A,2 A,2 A,2 (A,G,) | %10
 x8 | x8 |] %12

